assets/images/svg/profile-fill.svg

<svg width="24" height="24" viewBox="0 0 24 24" fill="none" xmlns="http://www.w3.org/2000/svg">
<path d="M12 2C9.38 2 7.25 4.13 7.25 6.75C7.25 9.32 9.26 11.4 11.88 11.49C11.96 11.48 12.04 11.48 12.1 11.49C12.12 11.49 12.13 11.49 12.15 11.49C12.16 11.49 12.16 11.49 12.17 11.49C14.73 11.4 16.74 9.32 16.75 6.75C16.75 4.13 14.62 2 12 2Z" fill="#F58218"/>
<path d="M17.0809 14.1499C14.2909 12.2899 9.74094 12.2899 6.93094 14.1499C5.66094 14.9999 4.96094 16.1499 4.96094 17.3799C4.96094 18.6099 5.66094 19.7499 6.92094 20.5899C8.32094 21.5299 10.1609 21.9999 12.0009 21.9999C13.8409 21.9999 15.6809 21.5299 17.0809 20.5899C18.3409 19.7399 19.0409 18.5999 19.0409 17.3599C19.0309 16.1299 18.3409 14.9899 17.0809 14.1499Z" fill="#F58218"/>
</svg>

<svg xmlns="http://www.w3.org/2000/svg" width="24" height="24" fill="none" viewBox="0 0 24 24"><path fill="#f58218" d="M12 2C9.38 2 7.25 4.13 7.25 6.75c0 2.57 2.01 4.65 4.63 4.74.08-.01.16-.01.22 0h.07a4.74 4.74 0 0 0 4.58-4.74C16.75 4.13 14.62 2 12 2M17.08 14.15c-2.79-1.86-7.34-1.86-10.15 0-1.27.85-1.97 2-1.97 3.23s.7 2.37 1.96 3.21C8.32 21.53 10.16 22 12 22s3.68-.47 5.08-1.41c1.26-.85 1.96-1.99 1.96-3.23-.01-1.23-.7-2.37-1.96-3.21"/></svg>
